(Generated by PartKam Version 0.05)

G20 G90 G40

(profile 1)
G0 Z0.1
T0 M6
G17
M3
G0 X0.0053 Y-0.1197
G1 Z-0.14 F15
G1 X0.4053 Y-0.1197 F12
G1 X5.9603 Y-0.1197
G1 X6.3603 Y-0.1197
G1 X6.5013 Y-0.1197
G3 X6.6263 Y0.0053 I0 J0.125
G1 X6.6263 Y0.7927
G3 X6.5013 Y0.9177 I-0.125 J0
G1 X4.6578 Y0.9177
G1 X4.6578 Y1.0036
G3 X4.9157 Y1.1926 I-1.4637 J2.2682
G3 X5.1856 Y1.4528 I-1.5811 J1.9095
G3 X5.4131 Y1.7508 I-1.851 J1.6493
G3 X5.6017 Y2.0926 I-2.2632 J1.4714
G3 X5.739 Y2.458 I-2.4518 J1.1296
G3 X5.8176 Y2.8246 I-2.3777 J0.7018
G3 X5.8404 Y3.1598 I-2.4564 J0.3352
G3 X5.8401 Y3.1988 I-2.4791 J0
G3 X5.8057 Y3.5877 I-2.6992 J-0.0425
G3 X5.7157 Y3.9675 I-2.6648 J-0.4313
G3 X5.5763 Y4.3156 I-2.3646 J-0.7449
G3 X5.386 Y4.6386 I-2.2252 J-1.093
G3 X5.1405 Y4.9421 I-2.2158 J-1.5419
G3 X4.8537 Y5.207 I-1.9703 J-1.8454
G3 X4.5438 Y5.4179 I-1.5461 J-1.938
G3 X4.2056 Y5.5798 I-1.2362 J-2.149
G3 X3.9295 Y5.6703 I-0.9778 J-2.5162
G1 X3.9295 Y6.2258
G3 X3.8045 Y6.3508 I-0.125 J0
G1 X3.4108 Y6.3508
G3 X3.2858 Y6.2258 I0 J-0.125
G1 X3.2858 Y4.9787
G3 X3.3999 Y4.8542 I0.125 J0
G2 X3.7304 Y4.7945 I-0.1592 J-1.8237
G2 X4.0175 Y4.6831 I-0.4164 J-1.5001
G2 X4.2771 Y4.5175 I-0.7035 J-1.3888
G2 X4.5208 Y4.2864 I-1.1325 J-1.4383
G2 X4.7181 Y4.0148 I-1.3762 J-1.2073
G2 X4.8486 Y3.7358 I-1.3382 J-0.7956
G2 X4.9215 Y3.4366 I-1.4686 J-0.5167
G2 X4.9395 Y3.1809 I-1.8127 J-0.2557
G2 X4.9377 Y3.1012 I-1.8307 J0
G2 X4.8924 Y2.7685 I-1.8289 J0.0797
G2 X4.7937 Y2.4768 I-1.5168 J0.3507
G2 X4.6395 Y2.2102 I-1.4181 J0.6424
G2 X4.4193 Y1.9567 I-1.4862 J1.0689
G2 X4.1564 Y1.7477 I-1.266 J1.3224
G2 X3.8834 Y1.6053 I-0.8531 J1.3023
G2 X3.5877 Y1.5193 I-0.5801 J1.4447
G2 X3.2533 Y1.4885 I-0.3344 J1.7999
G2 X2.9189 Y1.5193 I0 J1.8307
G2 X2.6232 Y1.6053 I0.2844 J1.5306
G2 X2.3502 Y1.7477 I0.5801 J1.4447
G2 X2.0873 Y1.9567 I1.0032 J1.5314
G2 X1.8671 Y2.2102 I1.266 J1.3224
G2 X1.7129 Y2.4768 I1.2639 J0.909
G2 X1.6142 Y2.7685 I1.4181 J0.6424
G2 X1.5689 Y3.1012 I1.7836 J0.4124
G2 X1.5672 Y3.1809 I1.8289 J0.0797
G2 X1.5851 Y3.4366 I1.8307 J0
G2 X1.6581 Y3.7358 I1.5416 J-0.2175
G2 X1.7885 Y4.0148 I1.4686 J-0.5167
G2 X1.9859 Y4.2864 I1.5736 J-0.9356
G2 X2.2295 Y4.5175 I1.3762 J-1.2073
G2 X2.4891 Y4.6831 I0.9631 J-1.2232
G2 X2.7763 Y4.7945 I0.7035 J-1.3888
G2 X3.1067 Y4.8542 I0.4896 J-1.764
G3 X3.2208 Y4.9787 I-0.0109 J0.1245
G1 X3.2208 Y6.2258
G3 X3.0958 Y6.3508 I-0.125 J0
G1 X2.7021 Y6.3508
G3 X2.5771 Y6.2258 I0 J-0.125
G1 X2.5771 Y5.6703
G3 X2.301 Y5.5798 I0.7017 J-2.6067
G3 X1.9628 Y5.4179 I0.898 J-2.3108
G3 X1.6529 Y5.207 I1.2362 J-2.149
G3 X1.3662 Y4.9421 I1.6835 J-2.1102
G3 X1.1206 Y4.6386 I1.9703 J-1.8454
G3 X0.9303 Y4.3156 I2.0349 J-1.416
G3 X0.791 Y3.9675 I2.2252 J-1.093
G3 X0.7009 Y3.5877 I2.5748 J-0.8112
G3 X0.6666 Y3.1988 I2.6648 J-0.4313
G3 X0.6662 Y3.1598 I2.4788 J-0.039
G3 X0.689 Y2.8246 I2.4791 J0
G3 X0.7677 Y2.458 I2.4564 J0.3352
G3 X0.9049 Y2.0926 I2.5891 J0.7642
G3 X1.0935 Y1.7508 I2.4518 J1.1296
G3 X1.321 Y1.4528 I2.0785 J1.3513
G3 X1.5909 Y1.1926 I1.851 J1.6493
G3 X1.8488 Y1.0036 I1.7216 J2.0793
G1 X1.8488 Y0.9177
G1 X0.0053 Y0.9177
G3 X-0.1197 Y0.7927 I0 J-0.125
G1 X-0.1197 Y0.0053
G3 X0.0053 Y-0.1197 I0.125 J0
G1 Z-0.28 F15
G1 X0.4053 Y-0.1197 F12
G1 X5.9603 Y-0.1197
G1 X6.3603 Y-0.1197
G1 X6.5013 Y-0.1197
G3 X6.6263 Y0.0053 I0 J0.125
G1 X6.6263 Y0.7927
G3 X6.5013 Y0.9177 I-0.125 J0
G1 X4.6578 Y0.9177
G1 X4.6578 Y1.0036
G3 X4.9157 Y1.1926 I-1.4637 J2.2682
G3 X5.1856 Y1.4528 I-1.5811 J1.9095
G3 X5.4131 Y1.7508 I-1.851 J1.6493
G3 X5.6017 Y2.0926 I-2.2632 J1.4714
G3 X5.739 Y2.458 I-2.4518 J1.1296
G3 X5.8176 Y2.8246 I-2.3777 J0.7018
G3 X5.8404 Y3.1598 I-2.4564 J0.3352
G3 X5.8401 Y3.1988 I-2.4791 J0
G3 X5.8057 Y3.5877 I-2.6992 J-0.0425
G3 X5.7157 Y3.9675 I-2.6648 J-0.4313
G3 X5.5763 Y4.3156 I-2.3646 J-0.7449
G3 X5.386 Y4.6386 I-2.2252 J-1.093
G3 X5.1405 Y4.9421 I-2.2158 J-1.5419
G3 X4.8537 Y5.207 I-1.9703 J-1.8454
G3 X4.5438 Y5.4179 I-1.5461 J-1.938
G3 X4.2056 Y5.5798 I-1.2362 J-2.149
G3 X3.9295 Y5.6703 I-0.9778 J-2.5162
G1 X3.9295 Y6.2258
G3 X3.8045 Y6.3508 I-0.125 J0
G1 X3.4108 Y6.3508
G3 X3.2858 Y6.2258 I0 J-0.125
G1 X3.2858 Y4.9787
G3 X3.3999 Y4.8542 I0.125 J0
G2 X3.7304 Y4.7945 I-0.1592 J-1.8237
G2 X4.0175 Y4.6831 I-0.4164 J-1.5001
G2 X4.2771 Y4.5175 I-0.7035 J-1.3888
G2 X4.5208 Y4.2864 I-1.1325 J-1.4383
G2 X4.7181 Y4.0148 I-1.3762 J-1.2073
G2 X4.8486 Y3.7358 I-1.3382 J-0.7956
G2 X4.9215 Y3.4366 I-1.4686 J-0.5167
G2 X4.9395 Y3.1809 I-1.8127 J-0.2557
G2 X4.9377 Y3.1012 I-1.8307 J0
G2 X4.8924 Y2.7685 I-1.8289 J0.0797
G2 X4.7937 Y2.4768 I-1.5168 J0.3507
G2 X4.6395 Y2.2102 I-1.4181 J0.6424
G2 X4.4193 Y1.9567 I-1.4862 J1.0689
G2 X4.1564 Y1.7477 I-1.266 J1.3224
G2 X3.8834 Y1.6053 I-0.8531 J1.3023
G2 X3.5877 Y1.5193 I-0.5801 J1.4447
G2 X3.2533 Y1.4885 I-0.3344 J1.7999
G2 X2.9189 Y1.5193 I0 J1.8307
G2 X2.6232 Y1.6053 I0.2844 J1.5306
G2 X2.3502 Y1.7477 I0.5801 J1.4447
G2 X2.0873 Y1.9567 I1.0032 J1.5314
G2 X1.8671 Y2.2102 I1.266 J1.3224
G2 X1.7129 Y2.4768 I1.2639 J0.909
G2 X1.6142 Y2.7685 I1.4181 J0.6424
G2 X1.5689 Y3.1012 I1.7836 J0.4124
G2 X1.5672 Y3.1809 I1.8289 J0.0797
G2 X1.5851 Y3.4366 I1.8307 J0
G2 X1.6581 Y3.7358 I1.5416 J-0.2175
G2 X1.7885 Y4.0148 I1.4686 J-0.5167
G2 X1.9859 Y4.2864 I1.5736 J-0.9356
G2 X2.2295 Y4.5175 I1.3762 J-1.2073
G2 X2.4891 Y4.6831 I0.9631 J-1.2232
G2 X2.7763 Y4.7945 I0.7035 J-1.3888
G2 X3.1067 Y4.8542 I0.4896 J-1.764
G3 X3.2208 Y4.9787 I-0.0109 J0.1245
G1 X3.2208 Y6.2258
G3 X3.0958 Y6.3508 I-0.125 J0
G1 X2.7021 Y6.3508
G3 X2.5771 Y6.2258 I0 J-0.125
G1 X2.5771 Y5.6703
G3 X2.301 Y5.5798 I0.7017 J-2.6067
G3 X1.9628 Y5.4179 I0.898 J-2.3108
G3 X1.6529 Y5.207 I1.2362 J-2.149
G3 X1.3662 Y4.9421 I1.6835 J-2.1102
G3 X1.1206 Y4.6386 I1.9703 J-1.8454
G3 X0.9303 Y4.3156 I2.0349 J-1.416
G3 X0.791 Y3.9675 I2.2252 J-1.093
G3 X0.7009 Y3.5877 I2.5748 J-0.8112
G3 X0.6666 Y3.1988 I2.6648 J-0.4313
G3 X0.6662 Y3.1598 I2.4788 J-0.039
G3 X0.689 Y2.8246 I2.4791 J0
G3 X0.7677 Y2.458 I2.4564 J0.3352
G3 X0.9049 Y2.0926 I2.5891 J0.7642
G3 X1.0935 Y1.7508 I2.4518 J1.1296
G3 X1.321 Y1.4528 I2.0785 J1.3513
G3 X1.5909 Y1.1926 I1.851 J1.6493
G3 X1.8488 Y1.0036 I1.7216 J2.0793
G1 X1.8488 Y0.9177
G1 X0.0053 Y0.9177
G3 X-0.1197 Y0.7927 I0 J-0.125
G1 X-0.1197 Y0.0053
G3 X0.0053 Y-0.1197 I0.125 J0
G1 Z-0.42 F15
G1 Z-0.4 F15
G1 X0.4053 Y-0.1197 F12
G1 Z-0.42 F15
G1 X5.9603 Y-0.1197 F12
G1 Z-0.4 F15
G1 X6.3603 Y-0.1197 F12
G1 Z-0.42 F15
G1 X6.5013 Y-0.1197 F12
G3 X6.6263 Y0.0053 I0 J0.125
G1 X6.6263 Y0.7927
G3 X6.5013 Y0.9177 I-0.125 J0
G1 X4.6578 Y0.9177
G1 X4.6578 Y1.0036
G3 X4.9157 Y1.1926 I-1.4637 J2.2682
G3 X5.1856 Y1.4528 I-1.5811 J1.9095
G3 X5.4131 Y1.7508 I-1.851 J1.6493
G3 X5.6017 Y2.0926 I-2.2632 J1.4714
G3 X5.739 Y2.458 I-2.4518 J1.1296
G3 X5.8176 Y2.8246 I-2.3777 J0.7018
G3 X5.8404 Y3.1598 I-2.4564 J0.3352
G3 X5.8401 Y3.1988 I-2.4791 J0
G3 X5.8057 Y3.5877 I-2.6992 J-0.0425
G3 X5.7157 Y3.9675 I-2.6648 J-0.4313
G3 X5.5763 Y4.3156 I-2.3646 J-0.7449
G3 X5.386 Y4.6386 I-2.2252 J-1.093
G3 X5.1405 Y4.9421 I-2.2158 J-1.5419
G3 X4.8537 Y5.207 I-1.9703 J-1.8454
G3 X4.5438 Y5.4179 I-1.5461 J-1.938
G3 X4.2056 Y5.5798 I-1.2362 J-2.149
G3 X3.9295 Y5.6703 I-0.9778 J-2.5162
G1 X3.9295 Y6.2258
G3 X3.8045 Y6.3508 I-0.125 J0
G1 X3.4108 Y6.3508
G3 X3.2858 Y6.2258 I0 J-0.125
G1 X3.2858 Y4.9787
G3 X3.3999 Y4.8542 I0.125 J0
G2 X3.7304 Y4.7945 I-0.1592 J-1.8237
G2 X4.0175 Y4.6831 I-0.4164 J-1.5001
G2 X4.2771 Y4.5175 I-0.7035 J-1.3888
G2 X4.5208 Y4.2864 I-1.1325 J-1.4383
G2 X4.7181 Y4.0148 I-1.3762 J-1.2073
G2 X4.8486 Y3.7358 I-1.3382 J-0.7956
G2 X4.9215 Y3.4366 I-1.4686 J-0.5167
G2 X4.9395 Y3.1809 I-1.8127 J-0.2557
G2 X4.9377 Y3.1012 I-1.8307 J0
G2 X4.8924 Y2.7685 I-1.8289 J0.0797
G2 X4.7937 Y2.4768 I-1.5168 J0.3507
G2 X4.6395 Y2.2102 I-1.4181 J0.6424
G2 X4.4193 Y1.9567 I-1.4862 J1.0689
G2 X4.1564 Y1.7477 I-1.266 J1.3224
G2 X3.8834 Y1.6053 I-0.8531 J1.3023
G2 X3.5877 Y1.5193 I-0.5801 J1.4447
G2 X3.2533 Y1.4885 I-0.3344 J1.7999
G2 X2.9189 Y1.5193 I0 J1.8307
G2 X2.6232 Y1.6053 I0.2844 J1.5306
G2 X2.3502 Y1.7477 I0.5801 J1.4447
G2 X2.0873 Y1.9567 I1.0032 J1.5314
G2 X1.8671 Y2.2102 I1.266 J1.3224
G2 X1.7129 Y2.4768 I1.2639 J0.909
G2 X1.6142 Y2.7685 I1.4181 J0.6424
G2 X1.5689 Y3.1012 I1.7836 J0.4124
G2 X1.5672 Y3.1809 I1.8289 J0.0797
G2 X1.5851 Y3.4366 I1.8307 J0
G2 X1.6581 Y3.7358 I1.5416 J-0.2175
G2 X1.7885 Y4.0148 I1.4686 J-0.5167
G2 X1.9859 Y4.2864 I1.5736 J-0.9356
G2 X2.2295 Y4.5175 I1.3762 J-1.2073
G2 X2.4891 Y4.6831 I0.9631 J-1.2232
G2 X2.7763 Y4.7945 I0.7035 J-1.3888
G2 X3.1067 Y4.8542 I0.4896 J-1.764
G3 X3.2208 Y4.9787 I-0.0109 J0.1245
G1 X3.2208 Y6.2258
G3 X3.0958 Y6.3508 I-0.125 J0
G1 X2.7021 Y6.3508
G3 X2.5771 Y6.2258 I0 J-0.125
G1 X2.5771 Y5.6703
G3 X2.301 Y5.5798 I0.7017 J-2.6067
G3 X1.9628 Y5.4179 I0.898 J-2.3108
G3 X1.6529 Y5.207 I1.2362 J-2.149
G3 X1.3662 Y4.9421 I1.6835 J-2.1102
G3 X1.1206 Y4.6386 I1.9703 J-1.8454
G3 X0.9303 Y4.3156 I2.0349 J-1.416
G3 X0.791 Y3.9675 I2.2252 J-1.093
G3 X0.7009 Y3.5877 I2.5748 J-0.8112
G3 X0.6666 Y3.1988 I2.6648 J-0.4313
G3 X0.6662 Y3.1598 I2.4788 J-0.039
G3 X0.689 Y2.8246 I2.4791 J0
G3 X0.7677 Y2.458 I2.4564 J0.3352
G3 X0.9049 Y2.0926 I2.5891 J0.7642
G3 X1.0935 Y1.7508 I2.4518 J1.1296
G3 X1.321 Y1.4528 I2.0785 J1.3513
G3 X1.5909 Y1.1926 I1.851 J1.6493
G3 X1.8488 Y1.0036 I1.7216 J2.0793
G1 X1.8488 Y0.9177
G1 X0.0053 Y0.9177
G3 X-0.1197 Y0.7927 I0 J-0.125
G1 X-0.1197 Y0.0053
G3 X0.0053 Y-0.1197 I0.125 J0
G1 Z-0.54 F15
G1 Z-0.4 F15
G1 X0.4053 Y-0.1197 F12
G1 Z-0.54 F15
G1 X5.9603 Y-0.1197 F12
G1 Z-0.4 F15
G1 X6.3603 Y-0.1197 F12
G1 Z-0.54 F15
G1 X6.5013 Y-0.1197 F12
G3 X6.6263 Y0.0053 I0 J0.125
G1 X6.6263 Y0.7927
G3 X6.5013 Y0.9177 I-0.125 J0
G1 X4.6578 Y0.9177
G1 X4.6578 Y1.0036
G3 X4.9157 Y1.1926 I-1.4637 J2.2682
G3 X5.1856 Y1.4528 I-1.5811 J1.9095
G3 X5.4131 Y1.7508 I-1.851 J1.6493
G3 X5.6017 Y2.0926 I-2.2632 J1.4714
G3 X5.739 Y2.458 I-2.4518 J1.1296
G3 X5.8176 Y2.8246 I-2.3777 J0.7018
G3 X5.8404 Y3.1598 I-2.4564 J0.3352
G3 X5.8401 Y3.1988 I-2.4791 J0
G3 X5.8057 Y3.5877 I-2.6992 J-0.0425
G3 X5.7157 Y3.9675 I-2.6648 J-0.4313
G3 X5.5763 Y4.3156 I-2.3646 J-0.7449
G3 X5.386 Y4.6386 I-2.2252 J-1.093
G3 X5.1405 Y4.9421 I-2.2158 J-1.5419
G3 X4.8537 Y5.207 I-1.9703 J-1.8454
G3 X4.5438 Y5.4179 I-1.5461 J-1.938
G3 X4.2056 Y5.5798 I-1.2362 J-2.149
G3 X3.9295 Y5.6703 I-0.9778 J-2.5162
G1 X3.9295 Y6.2258
G3 X3.8045 Y6.3508 I-0.125 J0
G1 X3.4108 Y6.3508
G3 X3.2858 Y6.2258 I0 J-0.125
G1 X3.2858 Y4.9787
G3 X3.3999 Y4.8542 I0.125 J0
G2 X3.7304 Y4.7945 I-0.1592 J-1.8237
G2 X4.0175 Y4.6831 I-0.4164 J-1.5001
G2 X4.2771 Y4.5175 I-0.7035 J-1.3888
G2 X4.5208 Y4.2864 I-1.1325 J-1.4383
G2 X4.7181 Y4.0148 I-1.3762 J-1.2073
G2 X4.8486 Y3.7358 I-1.3382 J-0.7956
G2 X4.9215 Y3.4366 I-1.4686 J-0.5167
G2 X4.9395 Y3.1809 I-1.8127 J-0.2557
G2 X4.9377 Y3.1012 I-1.8307 J0
G2 X4.8924 Y2.7685 I-1.8289 J0.0797
G2 X4.7937 Y2.4768 I-1.5168 J0.3507
G2 X4.6395 Y2.2102 I-1.4181 J0.6424
G2 X4.4193 Y1.9567 I-1.4862 J1.0689
G2 X4.1564 Y1.7477 I-1.266 J1.3224
G2 X3.8834 Y1.6053 I-0.8531 J1.3023
G2 X3.5877 Y1.5193 I-0.5801 J1.4447
G2 X3.2533 Y1.4885 I-0.3344 J1.7999
G2 X2.9189 Y1.5193 I0 J1.8307
G2 X2.6232 Y1.6053 I0.2844 J1.5306
G2 X2.3502 Y1.7477 I0.5801 J1.4447
G2 X2.0873 Y1.9567 I1.0032 J1.5314
G2 X1.8671 Y2.2102 I1.266 J1.3224
G2 X1.7129 Y2.4768 I1.2639 J0.909
G2 X1.6142 Y2.7685 I1.4181 J0.6424
G2 X1.5689 Y3.1012 I1.7836 J0.4124
G2 X1.5672 Y3.1809 I1.8289 J0.0797
G2 X1.5851 Y3.4366 I1.8307 J0
G2 X1.6581 Y3.7358 I1.5416 J-0.2175
G2 X1.7885 Y4.0148 I1.4686 J-0.5167
G2 X1.9859 Y4.2864 I1.5736 J-0.9356
G2 X2.2295 Y4.5175 I1.3762 J-1.2073
G2 X2.4891 Y4.6831 I0.9631 J-1.2232
G2 X2.7763 Y4.7945 I0.7035 J-1.3888
G2 X3.1067 Y4.8542 I0.4896 J-1.764
G3 X3.2208 Y4.9787 I-0.0109 J0.1245
G1 X3.2208 Y6.2258
G3 X3.0958 Y6.3508 I-0.125 J0
G1 X2.7021 Y6.3508
G3 X2.5771 Y6.2258 I0 J-0.125
G1 X2.5771 Y5.6703
G3 X2.301 Y5.5798 I0.7017 J-2.6067
G3 X1.9628 Y5.4179 I0.898 J-2.3108
G3 X1.6529 Y5.207 I1.2362 J-2.149
G3 X1.3662 Y4.9421 I1.6835 J-2.1102
G3 X1.1206 Y4.6386 I1.9703 J-1.8454
G3 X0.9303 Y4.3156 I2.0349 J-1.416
G3 X0.791 Y3.9675 I2.2252 J-1.093
G3 X0.7009 Y3.5877 I2.5748 J-0.8112
G3 X0.6666 Y3.1988 I2.6648 J-0.4313
G3 X0.6662 Y3.1598 I2.4788 J-0.039
G3 X0.689 Y2.8246 I2.4791 J0
G3 X0.7677 Y2.458 I2.4564 J0.3352
G3 X0.9049 Y2.0926 I2.5891 J0.7642
G3 X1.0935 Y1.7508 I2.4518 J1.1296
G3 X1.321 Y1.4528 I2.0785 J1.3513
G3 X1.5909 Y1.1926 I1.851 J1.6493
G3 X1.8488 Y1.0036 I1.7216 J2.0793
G1 X1.8488 Y0.9177
G1 X0.0053 Y0.9177
G3 X-0.1197 Y0.7927 I0 J-0.125
G1 X-0.1197 Y0.0053
G3 X0.0053 Y-0.1197 I0.125 J0
G0 Z0.1
M5
M30
